images/snack.svg

<svg fill="none" height="60" viewBox="0 0 60 60" width="60" xmlns="http://www.w3.org/2000/svg" xmlns:xlink="http://www.w3.org/1999/xlink"><clipPath id="a"><path d="m0 0h60v60h-60z"/></clipPath><g clip-path="url(#a)"><path d="m55.3674 26.1328h-21.6573l-.0434.0046.2906 5.1517 4.9219 14.0625-7.5888 6.4453h6.2096c.9704 0 1.8493-.3937 2.4856-1.03.3667-.3671.6528-.8144.8295-1.3138h12.0094z" fill="#ff637b"/><path d="m41.0156 42.4219c0-6.4865-5.2606-11.7188-11.7187-11.7188h-13.9623c-5.68815.8052-10.06116 5.6923-10.06116 11.6016 0 1.295 1.04873 2.3437 2.34375 2.3437h31.78341c.9371-.3067 1.615-1.1874 1.615-2.2265z" fill="#fed2a4"/><path d="m31.0547 16.0547c0 1.04.677 1.9198 1.6141 2.2265h23.8156c1.2936 0 2.3437-1.0501 2.3437-2.3437 0-1.04-.677-1.9199-1.614-2.2266-7.0313 0-19.0929 0-23.8157 0-1.2936 0-2.3437 1.0501-2.3437 2.3438z" fill="#766e6e"/><path d="m34.0709 25.0438.0434-.0046 21.3721.0009.7379-6.7589h-22.863z" fill="#e0f4ff"/><path d="m40.8151 49.4531-4.487 9.375h12.6682c1.1938 0 2.9004-.8976 3.0327-2.0846l.7956-7.2904z" fill="#e0f4ff"/><path d="m40.5469 1.17188h4.6875v12.42192h-4.6875z" fill="#fdbf00"/><path d="m38.6719 51.7969c-2.705 0-22.4552 0-31.31472 0-.93704.3067-1.61499 1.1874-1.61499 2.2265 0 2.5887 2.09884 4.6875 4.68751 4.6875h26.9375c2.0879-.4733 3.6484-2.3401 3.6484-4.5703 0-1.295-1.0487-2.3437-2.3437-2.3437z" fill="#fed2a4"/><path d="m26.9531 51.7969h-11.7187l5.8594-4.6875z" fill="#ff637b"/><path d="m35.7422 44.7656c-.9013 0-16.4223 0-24.5215 0l6.4014 5.121 3.4717-2.7772.7763.6212 2.3877-1.9103 5.083 4.0663z" fill="#fdbf00"/><path d="m6.98502 45.1973c-1.21628.5534-2.06314 1.7784-2.06314 3.2011 0 1.6301 1.10916 3.0002 2.61383 3.3984h7.69869z" fill="#ff637b"/><g fill="#5b5b5b"><path d="m16.4062 30.7031c0 .6473-.5245 1.1719-1.1718 1.1719s-1.1719-.5246-1.1719-1.1719.5246-1.1719 1.1719-1.1719 1.1718.5246 1.1718 1.1719z"/><path d="m32.8125 35.3906c0-.6468-.5251-1.1718-1.1719-1.1718s-1.1718.525-1.1718 1.1718.525 1.1719 1.1718 1.1719 1.1719-.5251 1.1719-1.1719z"/><path d="m28.125 40.0781c0-.6468-.5251-1.1719-1.1719-1.1719s-1.1719.5251-1.1719 1.1719.5251 1.1719 1.1719 1.1719 1.1719-.5251 1.1719-1.1719z"/><path d="m22.2656 35.3906c0-.6468-.525-1.1718-1.1718-1.1718-.6469 0-1.1719.525-1.1719 1.1718s.525 1.1719 1.1719 1.1719c.6468 0 1.1718-.5251 1.1718-1.1719z"/><path d="m15.2344 38.9062c-.6468 0-1.1719.5251-1.1719 1.1719s.5251 1.1719 1.1719 1.1719 1.1718-.5251 1.1718-1.1719-.525-1.1719-1.1718-1.1719z"/><path d="m10.5469 34.2188c-.64685 0-1.1719.525-1.1719 1.1718s.52505 1.1719 1.1719 1.1719c.6468 0 1.1719-.5251 1.1719-1.1719s-.5251-1.1718-1.1719-1.1718z"/><path d="m56.4844 12.4219h-10.0782v-11.25002c0-.647283-.5245-1.17188-1.1718-1.17188h-4.6875c-.6473 0-1.1719.524597-1.1719 1.17188v11.25002h-10.0781c-1.9423 0-3.5157 1.5733-3.5157 3.5156 0 1.6617 1.1591 3.0565 2.7105 3.4213l1.0675 10.1766c-.0875-.0014-.1749-.0042-.2623-.0042h-9.375c-.6473 0-1.1719.5246-1.1719 1.1719s.5246 1.1719 1.1719 1.1719h9.375c5.8827 0 10.5469 4.8065 10.5469 10.5469 0 .6468-.5251 1.1719-1.1719 1.1719-2.0517 0-33.44973 0-35.15628 0-.64636 0-1.17187-.5256-1.17187-1.1719 0-5.1599 3.67493-9.3727 8.44115-10.3372.6345-.1282 1.0446-.7467.9165-1.3807-.1287-.6344-.7471-1.0446-1.3811-.9164-5.81545 1.1769-10.3203 6.3126-10.3203 12.6343 0 1.073.483856 2.0352 1.2442 2.6802-.803374.8688-1.2442 1.9899-1.2442 3.1791 0 1.225.47287 2.3411 1.24466 3.1769-.803376.6826-1.24466 1.6516-1.24466 2.6825 0 3.2309 2.62848 5.8594 5.85938 5.8594h43.13692c1.6067 0 3.9811-1.1893 4.1977-3.1293.0499-.449 4.0869-37.4688 4.0915-37.5096 1.5275-.3548 2.7145-1.729 2.7145-3.4236 0-1.9386-1.577-3.5156-3.5156-3.5156zm-14.7656-10.07815h2.3437v10.07815h-2.3437zm12.6869 21.79685h-23.0558l-.4916-4.6875h24.0591zm-22.462 5.6635-.3479-3.3197h22.5544l-2.3767 21.7968h-9.586c0-1.2249-.4729-2.341-1.2447-3.1768.8034-.6826 1.2447-1.6516 1.2447-2.6825 0-6.1185-4.3442-11.3864-10.2438-12.6178zm-1.6498 20.8209 5.8594-4.6875h1.3467c1.2923 0 2.3438 1.0515 2.3438 2.3437 0 1.2864-1.0424 2.3438-2.3438 2.3438zm-25.6064 0c-1.29227 0-2.34375-1.0515-2.34375-2.3438 0-1.2945 1.04919-2.3437 2.34375-2.3437h1.34674l5.85936 4.6875zm27.7139-4.6875-5.4483 4.3584-3.9834-3.1865 1.4648-1.1719zm-17.167 4.3584-5.44833-4.3598h10.89663c-1.6768 1.3417-3.7761 3.0222-5.4483 4.3598zm5.8594-1.686 2.5186 2.0151h-5.0373zm-18.75005 5.5307c0-.6468.52505-1.1718 1.17187-1.1718h35.15628c.6463 0 1.1719.5255 1.1719 1.1718 0 1.9419-1.5738 3.5156-3.5157 3.5156-1.8251 0-28.64774 0-30.46872 0-1.93863 0-3.51563-1.5769-3.51563-3.5156zm46.65255 3.5156h-7.9811c.7603-1.0089 1.1723-2.2306 1.1723-3.5156 0-1.0734-.4843-2.0357-1.2451-2.6811.2348-.2541.4408-.5347.6143-.8345h9.9609l-.6536 5.9885c-.0445.4023-1.0726 1.0427-1.8677 1.0427zm7.4881-40.5468c-2.271 0-25.7149 0-27.1875 0-.6464 0-1.1719-.5255-1.1719-1.1719 0-.6468.5251-1.1719 1.1719-1.1719h27.1875c.6463 0 1.1718.5255 1.1718 1.1719 0 .6468-.525 1.1719-1.1718 1.1719z"/></g></g></svg>

<svg width="60" height="60" viewBox="0 0 60 60" fill="none" xmlns="http://www.w3.org/2000/svg">
<g clip-path="url(#clip0_2082_220)">
<path d="M55.3674 26.1328H33.7101L33.6667 26.1374L33.9573 31.2891L38.8792 45.3516L31.2904 51.7969H37.5C38.4704 51.7969 39.3493 51.4032 39.9856 50.7669C40.3523 50.3998 40.6384 49.9525 40.8151 49.4531H52.8245L55.3674 26.1328Z" fill="#FF637B"/>
<path d="M41.0156 42.4219C41.0156 35.9354 35.755 30.7031 29.2969 30.7031H15.3346C9.64645 31.5083 5.27344 36.3954 5.27344 42.3047C5.27344 43.5997 6.32217 44.6484 7.61719 44.6484H39.4006C40.3377 44.3417 41.0156 43.461 41.0156 42.4219Z" fill="#FED2A4"/>
<path d="M31.0547 16.0547C31.0547 17.0947 31.7317 17.9745 32.6688 18.2812H56.4844C57.778 18.2812 58.8281 17.2311 58.8281 15.9375C58.8281 14.8975 58.1511 14.0176 57.2141 13.7109C50.1828 13.7109 38.1212 13.7109 33.3984 13.7109C32.1048 13.7109 31.0547 14.761 31.0547 16.0547Z" fill="#766E6E"/>
<path d="M34.0709 25.0438L34.1143 25.0392L55.4864 25.0401L56.2243 18.2812H33.3613L34.0709 25.0438Z" fill="#E0F4FF"/>
<path d="M40.8151 49.4531L36.3281 58.8281H48.9963C50.1901 58.8281 51.8967 57.9305 52.029 56.7435L52.8246 49.4531H40.8151Z" fill="#E0F4FF"/>
<path d="M40.5469 1.17188H45.2344V13.5938H40.5469V1.17188Z" fill="#FDBF00"/>
<path d="M38.6719 51.7969C35.9669 51.7969 16.2167 51.7969 7.35718 51.7969C6.42014 52.1036 5.74219 52.9843 5.74219 54.0234C5.74219 56.6121 7.84103 58.7109 10.4297 58.7109H37.3672C39.4551 58.2376 41.0156 56.3708 41.0156 54.1406C41.0156 52.8456 39.9669 51.7969 38.6719 51.7969Z" fill="#FED2A4"/>
<path d="M26.9531 51.7969H15.2344L21.0938 47.1094L26.9531 51.7969Z" fill="#FF637B"/>
<path d="M35.7422 44.7656C34.8409 44.7656 19.3199 44.7656 11.2207 44.7656L17.6221 49.8866L21.0938 47.1094L21.8701 47.7306L24.2578 45.8203L29.3408 49.8866L35.7422 44.7656Z" fill="#FDBF00"/>
<path d="M6.98502 45.1973C5.76874 45.7507 4.92188 46.9757 4.92188 48.3984C4.92188 50.0285 6.03104 51.3986 7.53571 51.7968H15.2344L6.98502 45.1973Z" fill="#FF637B"/>
<path d="M16.4062 30.7031C16.4062 31.3504 15.8817 31.875 15.2344 31.875C14.5871 31.875 14.0625 31.3504 14.0625 30.7031C14.0625 30.0558 14.5871 29.5312 15.2344 29.5312C15.8817 29.5312 16.4062 30.0558 16.4062 30.7031Z" fill="#5B5B5B"/>
<path d="M32.8125 35.3906C32.8125 34.7438 32.2874 34.2188 31.6406 34.2188C30.9938 34.2188 30.4688 34.7438 30.4688 35.3906C30.4688 36.0374 30.9938 36.5625 31.6406 36.5625C32.2874 36.5625 32.8125 36.0374 32.8125 35.3906Z" fill="#5B5B5B"/>
<path d="M28.125 40.0781C28.125 39.4313 27.5999 38.9062 26.9531 38.9062C26.3063 38.9062 25.7812 39.4313 25.7812 40.0781C25.7812 40.7249 26.3063 41.25 26.9531 41.25C27.5999 41.25 28.125 40.7249 28.125 40.0781Z" fill="#5B5B5B"/>
<path d="M22.2656 35.3906C22.2656 34.7438 21.7406 34.2188 21.0938 34.2188C20.4469 34.2188 19.9219 34.7438 19.9219 35.3906C19.9219 36.0374 20.4469 36.5625 21.0938 36.5625C21.7406 36.5625 22.2656 36.0374 22.2656 35.3906Z" fill="#5B5B5B"/>
<path d="M15.2344 38.9062C14.5876 38.9062 14.0625 39.4313 14.0625 40.0781C14.0625 40.7249 14.5876 41.25 15.2344 41.25C15.8812 41.25 16.4062 40.7249 16.4062 40.0781C16.4062 39.4313 15.8812 38.9062 15.2344 38.9062Z" fill="#5B5B5B"/>
<path d="M10.5469 34.2188C9.90005 34.2188 9.375 34.7438 9.375 35.3906C9.375 36.0374 9.90005 36.5625 10.5469 36.5625C11.1937 36.5625 11.7188 36.0374 11.7188 35.3906C11.7188 34.7438 11.1937 34.2188 10.5469 34.2188Z" fill="#5B5B5B"/>
<path d="M56.4844 12.4219H46.4062V1.17188C46.4062 0.524597 45.8817 0 45.2344 0H40.5469C39.8996 0 39.375 0.524597 39.375 1.17188V12.4219H29.2969C27.3546 12.4219 25.7812 13.9952 25.7812 15.9375C25.7812 17.5992 26.9403 18.994 28.4917 19.3588L29.5592 29.5354C29.4717 29.534 29.3843 29.5312 29.2969 29.5312H19.9219C19.2746 29.5312 18.75 30.0558 18.75 30.7031C18.75 31.3504 19.2746 31.875 19.9219 31.875H29.2969C35.1796 31.875 39.8438 36.6815 39.8438 42.4219C39.8438 43.0687 39.3187 43.5938 38.6719 43.5938C36.6202 43.5938 5.22217 43.5938 3.51562 43.5938C2.86926 43.5938 2.34375 43.0682 2.34375 42.4219C2.34375 37.262 6.01868 33.0492 10.7849 32.0847C11.4194 31.9565 11.8295 31.338 11.7014 30.704C11.5727 30.0696 10.9543 29.6594 10.3203 29.7876C4.50485 30.9645 0 36.1002 0 42.4219C0 43.4949 0.483856 44.4571 1.2442 45.1021C0.440826 45.9709 0 47.092 0 48.2812C0 49.5062 0.47287 50.6223 1.24466 51.4581C0.441284 52.1407 0 53.1097 0 54.1406C0 57.3715 2.62848 60 5.85938 60H48.9963C50.603 60 52.9774 58.8107 53.194 56.8707C53.2439 56.4217 57.2809 19.4019 57.2855 19.3611C58.813 19.0063 60 17.6321 60 15.9375C60 13.9989 58.423 12.4219 56.4844 12.4219ZM41.7188 2.34375H44.0625V12.4219H41.7188V2.34375ZM54.4057 24.1406H31.3499L30.8583 19.4531H54.9174L54.4057 24.1406ZM31.9437 29.8041L31.5958 26.4844H54.1502L51.7735 48.2812H42.1875C42.1875 47.0563 41.7146 45.9402 40.9428 45.1044C41.7462 44.4218 42.1875 43.4528 42.1875 42.4219C42.1875 36.3034 37.8433 31.0355 31.9437 29.8041ZM30.2939 50.625L36.1533 45.9375H37.5C38.7923 45.9375 39.8438 46.989 39.8438 48.2812C39.8438 49.5676 38.8014 50.625 37.5 50.625H30.2939ZM4.6875 50.625C3.39523 50.625 2.34375 49.5735 2.34375 48.2812C2.34375 46.9867 3.39294 45.9375 4.6875 45.9375H6.03424L11.8936 50.625H4.6875ZM32.4014 45.9375L26.9531 50.2959L22.9697 47.1094L24.4345 45.9375H32.4014ZM15.2344 50.2959L9.78607 45.9361H20.6827C19.0059 47.2778 16.9066 48.9583 15.2344 50.2959ZM21.0938 48.6099L23.6124 50.625H18.5751L21.0938 48.6099ZM2.34375 54.1406C2.34375 53.4938 2.8688 52.9688 3.51562 52.9688H38.6719C39.3182 52.9688 39.8438 53.4943 39.8438 54.1406C39.8438 56.0825 38.27 57.6562 36.3281 57.6562C34.503 57.6562 7.68036 57.6562 5.85938 57.6562C3.92075 57.6562 2.34375 56.0793 2.34375 54.1406ZM48.9963 57.6562H41.0152C41.7755 56.6473 42.1875 55.4256 42.1875 54.1406C42.1875 53.0672 41.7032 52.1049 40.9424 51.4595C41.1772 51.2054 41.3832 50.9248 41.5567 50.625H51.5176L50.864 56.6135C50.8195 57.0158 49.7914 57.6562 48.9963 57.6562ZM56.4844 17.1094C54.2134 17.1094 30.7695 17.1094 29.2969 17.1094C28.6505 17.1094 28.125 16.5839 28.125 15.9375C28.125 15.2907 28.6501 14.7656 29.2969 14.7656H56.4844C57.1307 14.7656 57.6562 15.2911 57.6562 15.9375C57.6562 16.5843 57.1312 17.1094 56.4844 17.1094Z" fill="#5B5B5B"/>
</g>
<defs>
<clipPath id="clip0_2082_220">
<rect width="60" height="60" fill="white"/>
</clipPath>
</defs>
</svg>
